findly-builder/apps/searchassist/src/assets/icons/content/sample-json.svg

<svg width="13" height="12" viewBox="0 0 13 12" fill="none" xmlns="http://www.w3.org/2000/svg">
<path d="M4.69118 0.849256C4.69118 0.564275 4.46016 0.333252 4.17518 0.333252H2.94101L2.87048 0.334705C1.95829 0.372365 1.23492 1.13722 1.23492 2.06927V4.63067L0.152218 5.70697L0.118509 5.74384C-0.0500372 5.94692 -0.0388007 6.24898 0.152218 6.43887L1.23492 7.51517V9.93057C1.23492 10.8626 1.95829 11.6275 2.87048 11.6651L2.94101 11.6666H4.17518C4.46016 11.6666 4.69118 11.4356 4.69118 11.1506C4.69118 10.8814 4.48512 10.6604 4.22215 10.6367L4.17518 10.6346H2.94101C2.5877 10.6346 2.29355 10.3488 2.26864 9.98118L2.26693 9.93057V7.35498C2.26693 7.27151 2.24711 7.19266 2.21192 7.1229C2.18844 7.04116 2.14439 6.96409 2.07979 6.89987L1.24801 6.07295L2.07979 5.24597L2.11337 5.20926C2.20226 5.10224 2.24123 4.96766 2.23018 4.83647C2.25389 4.77723 2.26693 4.71257 2.26693 4.64486V2.06927L2.26864 2.01866C2.29355 1.65105 2.5877 1.36526 2.94101 1.36526H4.17518L4.22215 1.36315C4.48512 1.33942 4.69118 1.1184 4.69118 0.849256Z" fill="#202124"/>
<path d="M9.99457 5.20926C9.90569 5.10224 9.86672 4.96766 9.87776 4.83647C9.85406 4.77723 9.84102 4.71257 9.84102 4.64486V2.06927L9.83931 2.01866C9.8144 1.65105 9.52025 1.36526 9.16693 1.36526H7.93277L7.8858 1.36315C7.62283 1.33942 7.41676 1.1184 7.41676 0.849256C7.41676 0.564275 7.64779 0.333252 7.93277 0.333252H9.16693L9.23746 0.334705C10.1497 0.372365 10.873 1.13722 10.873 2.06927V4.63067L11.9557 5.70697L11.9894 5.74384C12.158 5.94692 12.1467 6.24898 11.9557 6.43887L10.873 7.51517V9.93057C10.873 10.8626 10.1497 11.6275 9.23746 11.6651L9.16693 11.6666H7.93277C7.64779 11.6666 7.41676 11.4356 7.41676 11.1506C7.41676 10.8814 7.62283 10.6604 7.8858 10.6367L7.93277 10.6346H9.16693C9.52025 10.6346 9.8144 10.3488 9.83931 9.98118L9.84102 9.93057V7.35498C9.84102 7.27151 9.86084 7.19266 9.89603 7.1229C9.9195 7.04116 9.96355 6.96409 10.0282 6.89987L10.8599 6.07268L10.0282 5.24597L9.99457 5.20926Z" fill="#202124"/>
</svg>

<svg width="13" height="12" fill="none" xmlns="http://www.w3.org/2000/svg"><path d="M4.691.85a.516.516 0 0 0-.516-.517H2.941l-.07.002c-.913.037-1.636.802-1.636 1.734v2.562L.152 5.707l-.033.037a.516.516 0 0 0 .033.695l1.083 1.076v2.416c0 .932.723 1.697 1.635 1.734l.071.002h1.234a.516.516 0 0 0 .047-1.03l-.047-.002H2.941a.687.687 0 0 1-.672-.654l-.002-.05V7.355a.514.514 0 0 0-.055-.232.514.514 0 0 0-.132-.223l-.832-.827.832-.827.033-.037a.515.515 0 0 0 .117-.373.515.515 0 0 0 .037-.191V2.069l.002-.05a.687.687 0 0 1 .672-.654h1.234l.047-.002a.516.516 0 0 0 .47-.514Zm5.304 4.36a.515.515 0 0 1-.117-.374.515.515 0 0 1-.037-.191V2.069l-.002-.05a.687.687 0 0 0-.672-.654H7.933l-.047-.002a.516.516 0 0 1 .047-1.03h1.234l.07.002c.913.037 1.636.802 1.636 1.734v2.562l1.083 1.076.033.037a.516.516 0 0 1-.033.695l-1.083 1.076v2.416c0 .932-.723 1.697-1.636 1.734l-.07.002H7.933a.516.516 0 0 1-.047-1.03l.047-.002h1.234a.687.687 0 0 0 .672-.654l.002-.05V7.355c0-.083.02-.162.055-.232a.513.513 0 0 1 .132-.223l.832-.827-.832-.827-.033-.037Z" fill="#202124"/></svg>
